X:1
T:Title
%%score { ( 1 5 ) | ( 2 3 4 ) }
L:1/8
Q:1/4=90
M:6/8
K:Ab
V:1 treble nm="Grand Piano"
V:5 treble 
V:2 bass 
V:3 bass 
V:4 bass 
V:1
 [Ec]A[DB] [Ec]e[Fd] | [Ec]2 _c B2 E, | BG[CA] [DB]d[Ec] | [DB]A[DF] .[CE]3 | %4
w: Adam~Geibel * * * * *||||
 [Ec]A[DB] [Ec]d[_Ge] | [_Ge]2 d d2 A, |[M:4/4] cBA[B,G] [Ec]2 z2 |[M:3/4] [CA]6 | [CE]E EE z2 | %9
w: |||||
 EE EE z2 | EE G[DGB] [DGB][FGd] | [FAd]2 [EAc] .[EAc]3 | [A,CE][A,CE] [A,CE][CE] z2 | %13
w: ||||
[M:7/8] [A,DF][A,DF][DF] [_CFA]3 z |[M:3/4] [CEA][CEA] [CEA][CFA] [DGB][EGc] | %15
w: ||
 [DGB]2 [CFA] .[CEA]3 |] %16
w: |
V:2
 z CE, z GE, | z2 [E,D] .[E,D]3 | DB,E, z FE, | z CA, A,E,C, | z CE, z[K:treble] FA, | %5
 z2[K:treble] [A,F] .[DF]3 |[M:4/4][K:bass] [E,A,E]DC[E,,E,]- [E,,E,]3- [E,,E,]/ z/ | %7
[M:3/4] [A,,E,]6 | [A,,A,][C,A,C] [E,A,C][A,C] z2 | [E,G,B,][E,B,D] [E,A,C][E,G,B,] z2 | %10
 [E,G,D][E,G,D] [E,B,E]E, E,E, | A,,2 A,, .A,,3 | A,,C, E,A, z2 |[M:7/8] D,F,A, =D,3 z | %14
[M:3/4] E,E, E,E, E,E, | E,2 A,, .A,,3 |] %16
V:3
 z3 .A,3 | E,,6 | z3 .E,3 | A,,6 | z3 .A,3[K:treble] | D,6[K:treble] |[M:4/4][K:bass] x8 | %7
[M:3/4] x6 | x6 | x6 | x6 | x6 | x6 |[M:7/8] x7 |[M:3/4] x6 | x6 |] %16
V:4
 A,,6 | x6 | x6 | x6 | A,,6[K:treble] | x2[K:treble] x4 |[M:4/4][K:bass] x8 |[M:3/4] x6 | x6 | x6 | %10
 x6 | x6 | x6 |[M:7/8] x7 |[M:3/4] x6 | x6 |] %16
V:5
 x6 | x6 | x6 | x6 | x6 | x6 |[M:4/4] z4 z2 z [DB]- |[M:3/4] [DB]2 z2 z2 | x6 | x6 | x6 | x6 | x6 | %13
[M:7/8] x7 |[M:3/4] x6 | x6 |] %16

